storage/app/icons/phosphoricons/bold/align-top-simple-bold.svg

<svg xmlns="http://www.w3.org/2000/svg" fill="currentColor" viewBox="0 0 256 256"><path d="M212 32a12 12 0 0 1-12 12H56a12 12 0 0 1 0-24h144a12 12 0 0 1 12 12m-32 48v144a20 20 0 0 1-20 20H96a20 20 0 0 1-20-20V80a20 20 0 0 1 20-20h64a20 20 0 0 1 20 20m-24 4h-56v136h56Z"/></svg>

<svg xmlns="http://www.w3.org/2000/svg" viewBox="0 0 256 256" fill="currentColor"><path d="M212,32a12,12,0,0,1-12,12H56a12,12,0,0,1,0-24H200A12,12,0,0,1,212,32ZM180,80V224a20,20,0,0,1-20,20H96a20,20,0,0,1-20-20V80A20,20,0,0,1,96,60h64A20,20,0,0,1,180,80Zm-24,4H100V220h56Z"/></svg>
